X: 022
T: a Trip to Bermondsey ???
N: The short last word of the title is illegible; may be "Spa".
%R: Rmarch
B: Thompson's Twenty four Country Dances (for the Year 1804) p.2 #2
S: http://folkopedia.efdss.org/images/2/28/Thompson24_1804.PDF  2014-8-2
Z: 2014 John Chambers <jc:trillian.mit.edu>
M: 2/4
L: 1/8
K: C
|:\
c2ec | egTg2 | fdec | BdBG |\
c2ec | faa2 | f'd'c'b | c'2c'2 :|
|:\
e'c'gc' | d'bag | afc'f | gedc |\
AcFc | GcEc | Gagf | ecc2 :|
% - - - - - - - - - - - - - - - - - - - - - - - - -
%%begintext align
%% Allemande with your Partner lead down
%% two Cu: set again & cast off hands four
%% round with 3d Cu: the same with the 2d Cu:
%% set corners & turn lead outsides.
%%endtext
% - - - - - - - - - - - - - - - - - - - - - - - - -
